!!!!SEGMENT: Ver3017-Con_lacrim_et_sospir.krn
!!!id: Ver3017
!!!AGN: Madrigal
!!!SCT: Slim (1972)
!!!voices: 4
!!!COM: Philippe Verdelot
!!!OTL: Con lacrim' et sospir'
**kern	**kern	**kern	**kern
*part4	*part3	*part2	*part1
*staff4	*staff3	*staff2	*staff1
*I"Bassus	*I"Tenor	*I"Altus	*I"Superius
*I'B	*I'T	*I'A	*I'S
*clefF4	*clefGv2	*clefGv2	*clefG2
*k[]	*k[]	*k[]	*k[]
*C:	*C:	*C:	*C:
*M2/1	*M2/1	*M2/1	*M2/1
*met(C)	*met(C)	*met(C)	*met(C)
=1	=1	=1	=1
0r	1G	1d	1g
.	2.c	2e	2g
.	.	2g	2g
.	4B	.	.
=2	=2	=2	=2
1D	2A	2g	2a
.	2A	2f	2a
2.G	2G	2g	[1b
.	2d	2G	.
4F	.	.	.
=3	=3	=3	=3
2E	2e	2G	1b]
2E	2g	2G	.
1D	2g	2A	2r
.	2f	2A	2a
=4	=4	=4	=4
2r	2g	2B	2.dd
2G	2d	2B	.
.	.	.	4cc
2G	2.g	2B	2b
2G	.	[2d	2b
.	4f	.	.
=5	=5	=5	=5
2A	2e	4d]	2a
.	.	8cL	.
.	.	8BJ	.
2A	2e	2c	2cc
2B	2d	1d	2b
2d	2f	.	[2a
=6	=6	=6	=6
2c	2e	2r	4a]
.	.	.	8gL
.	.	.	8fJ
2B	2.d	2d	2g
1A	.	2e	1a
.	8cL	.	.
.	8BJ	.	.
.	2c	2f	.
=7	=7	=7	=7
2G	1d	2.g	0r
2G	.	.	.
.	.	4f	.
2A	1r	2e	.
2B	.	2d	.
=8	=8	=8	=8
2.c	0r	2.e	2r
.	.	.	2g
4B	.	4d	.
2A	.	2c	2a
2G	.	2B	2b
=9	=9	=9	=9
2.A	2r	2A	2.cc
.	2c	4F	.
4G	.	4G	4b
2F	2d	4A	2a
.	.	4B	.
2E	2e	4c	2g
.	.	4B	.
=10	=10	=10	=10
2.D	2.f	2d	2.a
.	.	2A	.
4E	4e	.	4g
4F	2d	2A	2f
4G	.	.	.
2A	2c	2A	2e
=11	=11	=11	=11
2D	2.d	2A	2f
2F	.	2A	2.a
.	4c	.	.
2G	2B	2B	.
.	.	.	4g
2E	4A	2c	[2g
.	4G	.	.
=12	=12	=12	=12
1D	1A	1d	2g]
.	.	.	2f#i
2r	1G	2B	1g
2d	.	2G	.
=13	=13	=13	=13
2c	2r	2A	2r
2B	2G	2B	2dd
2A	2A	2c	2cc
2G	2B	2d	2b
=14	=14	=14	=14
2.c	2.c	2.e	2a
.	.	.	2g
4B	4d	4d	.
1A	2e	1c	1cc
.	2f	.	.
=15	=15	=15	=15
2G	1g	2d	1b
2d	.	2G	.
2c	2r	2A	2r
2B	2G	2B	2dd
=16	=16	=16	=16
2A	2A	2c	2cc
2G	2B	2d	2b
2.c	2.c	2.e	2a
.	.	.	2g
4B	4d	4d	.
=17	=17	=17	=17
1A	2e	1c	1cc
.	2f	.	.
[1G	1g	2d	[1b
.	.	2d	.
=18	=18	=18	=18
1G]	2r	2.g	0b]
.	2d	.	.
.	.	4f	.
2r	2.g	2e	.
2G	.	2d	.
.	4f	.	.
=19	=19	=19	=19
2.c	2.e	2.c	2r
.	.	.	2g
4B	4d	4d	.
2.A	1c	1e	2.cc
4G	.	.	4b
=20	=20	=20	=20
1.F	1.c	2r	2.a
.	.	1A	.
.	.	.	4g
.	.	.	2f
2G	2B	2B	2e
=21	=21	=21	=21
2A	2A	2c	2f
2B	2G	2d	1g
1c	1A	2e	.
.	.	4d	2f#i
.	.	4c	.
=22	=22	=22	=22
0C	1G	0e	[0g
.	[1c	.	.
=23	=23	=23	=23
1G	2c]	1d	0g]
.	4B	.	.
.	4A	.	.
1r	2.B	[1g	.
.	4c	.	.
=24	=24	=24	=24
0G	1B	1g]	1r
.	1r	[1d	[1dd
=25	=25	=25	=25
1.D	0d	2d]	1dd]
.	.	2d	.
.	.	1f	[1a
2D	.	.	.
=26	=26	=26	=26
1F	1.A	1f	2a]
.	.	.	2a
1F	.	1c	1cc
.	2A	.	.
=27	=27	=27	=27
1C	1c	1c	1cc
1C	1c	2r	1g
.	.	2c	.
=28	=28	=28	=28
2r	2G	2d	1g
2C	2G	2e	.
2D	2r	2f	1r
2E	2G	2e	.
=29	=29	=29	=29
2F	2A	2c	0r
2D	2B	2d	.
2C	2c	2e	.
2D	2A	2f	.
=30	=30	=30	=30
2E	2G	2g	0r
2F	2A	4f	.
.	.	4e	.
2.G	2.B	2d	.
.	.	[2e	.
4E	4G	.	.
=31	=31	=31	=31
4F	2A	4e]	0r
4E	.	4d	.
4D	1G	1c	.
4C	.	.	.
1D	.	.	.
.	2F	2B	.
=32	=32	=32	=32
1C	1G	2c	2r
.	.	2e	2g
2r	2r	2f	2a
2G	2g	2d	2b
=33	=33	=33	=33
2A	2f	2c	2cc
2B	2d	2g	2b
2c	2e	2g	2g
2A	2c	2f	2a
=34	=34	=34	=34
2G	2d	2g	2b
2A	2c	2e	2cc
1D	2.f	2d	2.dd
.	.	[2d	.
.	4e	.	4cc
=35	=35	=35	=35
2G	2.d	4d]	2b
.	.	4e	.
2F	.	2f	2.a
.	4c	.	.
2G	2B	2d	.
.	.	.	4g
2C	2c	2e	[2g
=36	=36	=36	=36
1D	1A	1d	2g]
.	.	.	2f#i
1E	1G	2B	[1gl
.	.	2B	.
=37	=37	=37	=37
1C	1.c	1e	0g_
[1Gl	.	[1dl	.
.	4B	.	.
.	4A	.	.
=38	=38	=38	=38
0G_	2.B	0d_	0g_
.	4c	.	.
.	[1Bl	.	.
=39	=39	=39	=39
00G]	00B]	00d]	00g]
==	==	==	==
*-	*-	*-	*-
!!!system-decoration: [*]
!!!RDF**kern: i = editorial accidental
!!!RDF**kern: l = terminal long
!!!ENC: Benjamin Ory
!!!END: 2021/2/10
!!!EED: Benjamin Ory
!!!EEV: 2021/04/29
!!!YEC: Copyright 2021 Benjamin Ory, All Rights Reserved
!!!ONB: Translated from MusicXML on 2021/04/29
